X:1
T: Noreen MacLennan of Stonehaven
C:Bruce Shawyer
R:Reel
Q:232
K:D
M:4/4
L:1/8
|:A|"D"d2fd A2dA|"G"B2GB "Em7"e3d|"A"c2Ac "A7"ag fe|"D"f2d2 d2A2|
"D"d2fd A2dA|"G"B2GB "Em7"e3d|"A"c2Ac "A7"ed ce|"D"f2d2 d3:|
|:A|"D"d2d2 "Bm"fe dc|"G"B2B2 "Em7"ed cB|"D"A2d2 f2ed|"A7"e2A2 A2Ac|
"D"d2d2 "Bm"fe dc|"G"B2B2 "Em"d3B|"D"A2d2 "A7"ed ce|"D"f2d2 d3:|
